svgs/sharp-solid/interrobang.svg

<svg xmlns="http://www.w3.org/2000/svg" viewBox="0 0 320 512"><!--! Font Awesome Pro 6.6.0 by @fontawesome - https://fontawesome.com License - https://fontawesome.com/license (Commercial License) Copyright 2024 Fonticons, Inc. --><path d="M144 96c-35.3 0-64 28.7-64 64l0 16-64 0 0-16C16 89.3 73.3 32 144 32l32 0c70.7 0 128 57.3 128 128l0 9.3c0 39.3-18 76.4-48.9 100.6L192 319.6l0 .4 0 32-64 0 0-32 0-16 0-15.6L128 176l0-32 64 0 0 32 0 62.2 23.5-18.5C231 207.5 240 189 240 169.3l0-9.3c0-35.3-28.7-64-64-64l-32 0zM120 400l80 0 0 80-80 0 0-80z"/></svg>

<svg xmlns="http://www.w3.org/2000/svg" viewBox="0 0 320 512"><!--! Font Awesome Pro 6.4.0 by @fontawesome - https://fontawesome.com License - https://fontawesome.com/license (Commercial License) Copyright 2023 Fonticons, Inc. --><path d="M144 96c-35.3 0-64 28.7-64 64v16H16V160C16 89.3 73.3 32 144 32h32c70.7 0 128 57.3 128 128v9.3c0 39.3-18 76.4-48.9 100.6L192 319.6v.4 32H128V320 304 288.4 176 144h64v32 62.2l23.5-18.5C231 207.5 240 189 240 169.3V160c0-35.3-28.7-64-64-64H144zM120 400h80v80H120V400z"/></svg>
